Numix-Light/16/status/indicator-keyboard-Cs-4.svg

<?xml version="1.0" encoding="UTF-8" standalone="no"?>
<svg
   xmlns:dc="http://purl.org/dc/elements/1.1/"
   xmlns:cc="http://creativecommons.org/ns#"
   xmlns:rdf="http://www.w3.org/1999/02/22-rdf-syntax-ns#"
   xmlns:svg="http://www.w3.org/2000/svg"
   xmlns="http://www.w3.org/2000/svg"
   xmlns:sodipodi="http://sodipodi.sourceforge.net/DTD/sodipodi-0.dtd"
   xmlns:inkscape="http://www.inkscape.org/namespaces/inkscape"
   viewBox="0 0 16 16"
   id="svg2"
   version="1.1"
   inkscape:version="0.91 r13725"
   sodipodi:docname="indicator-keyboard-Cs-4.svg">
  <metadata
     id="metadata14">
    <rdf:RDF>
      <cc:Work
         rdf:about="">
        <dc:format>image/svg+xml</dc:format>
        <dc:type
           rdf:resource="http://purl.org/dc/dcmitype/StillImage" />
      </cc:Work>
    </rdf:RDF>
  </metadata>
  <defs
     id="defs12" />
  <sodipodi:namedview
     pagecolor="#ffffff"
     bordercolor="#666666"
     borderopacity="1"
     objecttolerance="10"
     gridtolerance="10"
     guidetolerance="10"
     inkscape:pageopacity="0"
     inkscape:pageshadow="2"
     inkscape:window-width="640"
     inkscape:window-height="480"
     id="namedview10"
     showgrid="false"
     inkscape:zoom="14.75"
     inkscape:cx="8"
     inkscape:cy="8"
     inkscape:window-x="65"
     inkscape:window-y="24"
     inkscape:window-maximized="0"
     inkscape:current-layer="svg2" />
  <path
     style="fill:#353535;fill-opacity:1"
     d="M 1.5996094 0 C 0.71320937 2.9605947e-16 0 0.71320937 0 1.5996094 L 0 14.400391 C 2.9605947e-16 15.286791 0.71320937 16 1.5996094 16 L 14.400391 16 C 15.286791 16 16 15.286791 16 14.400391 L 16 1.5996094 C 16 0.71320937 15.286791 0 14.400391 0 L 1.5996094 0 z M 4.9882812 4.7246094 C 5.2222813 4.7246094 5.4349531 4.7395312 5.6269531 4.7695312 C 5.8189531 4.7995313 5.9868594 4.8387187 6.1308594 4.8867188 C 6.2748594 4.9287188 6.398 4.9734844 6.5 5.0214844 C 6.602 5.0634844 6.680375 5.1026719 6.734375 5.1386719 L 6.5371094 5.6699219 C 6.3871094 5.5799219 6.1949375 5.4922031 5.9609375 5.4082031 C 5.7329375 5.3182031 5.4474687 5.2734375 5.1054688 5.2734375 C 4.7154688 5.2734375 4.3740781 5.3387031 4.0800781 5.4707031 C 3.7920781 5.6027031 3.5476094 5.7892969 3.3496094 6.0292969 C 3.1516094 6.2692969 3.0023906 6.5547656 2.9003906 6.8847656 C 2.8043906 7.2147656 2.7558594 7.5804219 2.7558594 7.9824219 C 2.7558594 8.3964219 2.8043906 8.7714219 2.9003906 9.1074219 C 3.0023906 9.4374219 3.1497969 9.719125 3.3417969 9.953125 C 3.5337969 10.187125 3.7669688 10.366188 4.0429688 10.492188 C 4.3249688 10.618187 4.6458594 10.681641 5.0058594 10.681641 C 5.4018594 10.681641 5.7320938 10.646219 5.9960938 10.574219 C 6.2660937 10.496219 6.471375 10.417844 6.609375 10.339844 L 6.7792969 10.861328 C 6.7372969 10.891328 6.6664531 10.928703 6.5644531 10.970703 C 6.4624531 11.006703 6.3317813 11.045891 6.1757812 11.087891 C 6.0197812 11.129891 5.8407187 11.161547 5.6367188 11.185547 C 5.4327187 11.215547 5.205125 11.230469 4.953125 11.230469 C 4.551125 11.230469 4.176125 11.159625 3.828125 11.015625 C 3.486125 10.871625 3.1857344 10.660766 2.9277344 10.384766 C 2.6757344 10.108765 2.4742187 9.7691875 2.3242188 9.3671875 C 2.1802188 8.9591875 2.109375 8.4946562 2.109375 7.9726562 C 2.109375 7.4506563 2.1857969 6.9898906 2.3417969 6.5878906 C 2.5037969 6.1798906 2.7184219 5.8365469 2.9824219 5.5605469 C 3.2464219 5.2845469 3.5523906 5.0774531 3.9003906 4.9394531 C 4.2483906 4.7954531 4.6102812 4.7246094 4.9882812 4.7246094 z M 9.0683594 6.3359375 C 9.3863594 6.3359375 9.6475625 6.3620156 9.8515625 6.4160156 C 10.061562 6.4700156 10.208969 6.5185469 10.292969 6.5605469 L 10.158203 7.0820312 C 10.086203 7.0460313 9.9630624 6.9975 9.7890625 6.9375 C 9.6210625 6.8775 9.3710156 6.8476563 9.0410156 6.8476562 C 8.9090156 6.8476562 8.7840625 6.8625781 8.6640625 6.8925781 C 8.5500625 6.9165781 8.4474219 6.9595312 8.3574219 7.0195312 C 8.2674219 7.0735313 8.1965781 7.144375 8.1425781 7.234375 C 8.0885781 7.318375 8.0605469 7.4247812 8.0605469 7.5507812 C 8.0605469 7.6767813 8.0848125 7.7830469 8.1328125 7.8730469 C 8.1808125 7.9630469 8.2498438 8.0451875 8.3398438 8.1171875 C 8.4358437 8.1831875 8.5496406 8.2466406 8.6816406 8.3066406 C 8.8196406 8.3666406 8.9763906 8.4319063 9.1503906 8.5039062 C 9.3303906 8.5759062 9.5001094 8.6505156 9.6621094 8.7285156 C 9.8301094 8.8005156 9.9775158 8.8900469 10.103516 8.9980469 C 10.229516 9.1000469 10.332156 9.2269531 10.410156 9.3769531 C 10.488156 9.5209531 10.527344 9.7037813 10.527344 9.9257812 C 10.527344 10.345781 10.368781 10.664859 10.050781 10.880859 C 9.7387814 11.096859 9.3096719 11.203125 8.7636719 11.203125 C 8.3556719 11.203125 8.0421719 11.167703 7.8261719 11.095703 C 7.6101719 11.029703 7.4665313 10.979359 7.3945312 10.943359 L 7.5488281 10.412109 C 7.5668281 10.424109 7.6040625 10.444609 7.6640625 10.474609 C 7.7240625 10.498609 7.8062031 10.528453 7.9082031 10.564453 C 8.0102031 10.594453 8.1295781 10.622484 8.2675781 10.646484 C 8.4115781 10.670484 8.5776719 10.681641 8.7636719 10.681641 C 9.0996719 10.681641 9.3757969 10.627531 9.5917969 10.519531 C 9.8137969 10.405531 9.9238281 10.217125 9.9238281 9.953125 C 9.9238281 9.827125 9.9033281 9.7189063 9.8613281 9.6289062 C 9.8253281 9.5389062 9.761875 9.4587188 9.671875 9.3867188 C 9.581875 9.3147187 9.4625 9.2456875 9.3125 9.1796875 C 9.1685 9.1136875 8.9874844 9.0353125 8.7714844 8.9453125 C 8.5974844 8.8733125 8.4333437 8.8005156 8.2773438 8.7285156 C 8.1213437 8.6505156 7.9832813 8.56475 7.8632812 8.46875 C 7.7432813 8.36675 7.6462187 8.2454219 7.5742188 8.1074219 C 7.5022188 7.9694219 7.4667969 7.8015156 7.4667969 7.6035156 C 7.4667969 7.2255156 7.608625 6.9195469 7.890625 6.6855469 C 8.178625 6.4515469 8.5703594 6.3359375 9.0683594 6.3359375 z M 12.990234 8.8417969 L 13.388672 8.8417969 L 13.388672 11.486328 L 13.890625 11.486328 L 13.890625 11.796875 L 13.388672 11.796875 L 13.388672 12.896484 L 13.013672 12.896484 L 13.013672 11.796875 L 11.177734 11.796875 L 11.177734 11.5625 C 11.247934 11.3753 11.34395 11.163687 11.46875 10.929688 C 11.59745 10.695687 11.742444 10.456638 11.902344 10.210938 C 12.062244 9.9652374 12.236628 9.7261874 12.423828 9.4921875 C 12.611028 9.2542875 12.799134 9.0367969 12.990234 8.8417969 z M 13.013672 9.2695312 C 12.877172 9.4099312 12.738056 9.5706063 12.597656 9.7539062 C 12.457256 9.9372063 12.324012 10.129225 12.195312 10.328125 C 12.070512 10.523125 11.95295 10.719069 11.84375 10.917969 C 11.73455 11.116869 11.642459 11.306928 11.568359 11.486328 L 13.013672 11.486328 L 13.013672 9.2695312 z "
     id="path4" />
</svg>

<svg xmlns="http://www.w3.org/2000/svg" viewBox="0 0 16 16">
 <path d="m 1.6 0 c -0.886 0 -1.6 0.713 -1.6 1.6 l 0 12.801 c 0 0.886 0.713 1.6 1.6 1.6 l 12.801 0 c 0.886 0 1.6 -0.713 1.6 -1.6 l 0 -12.801 c 0 -0.886 -0.713 -1.6 -1.6 -1.6 l -12.801 0 z m 3.389 4.725 c 0.234 0 0.447 0.015 0.639 0.045 c 0.192 0.03 0.36 0.069 0.504 0.117 c 0.144 0.042 0.267 0.087 0.369 0.135 c 0.102 0.042 0.18 0.081 0.234 0.117 l -0.197 0.531 c -0.15 -0.09 -0.342 -0.178 -0.576 -0.262 c -0.228 -0.09 -0.513 -0.135 -0.855 -0.135 c -0.39 0 -0.731 0.065 -1.025 0.197 c -0.288 0.132 -0.532 0.319 -0.73 0.559 c -0.198 0.24 -0.347 0.525 -0.449 0.855 c -0.096 0.33 -0.145 0.696 -0.145 1.098 c 0 0.414 0.049 0.789 0.145 1.125 c 0.102 0.33 0.249 0.612 0.441 0.846 c 0.192 0.234 0.425 0.413 0.701 0.539 c 0.282 0.126 0.603 0.189 0.963 0.189 c 0.396 0 0.726 -0.035 0.99 -0.107 c 0.27 -0.078 0.475 -0.156 0.613 -0.234 l 0.17 0.521 c -0.042 0.03 -0.113 0.067 -0.215 0.109 c -0.102 0.036 -0.233 0.075 -0.389 0.117 c -0.156 0.042 -0.335 0.074 -0.539 0.098 c -0.204 0.03 -0.432 0.045 -0.684 0.045 c -0.402 0 -0.777 -0.071 -1.125 -0.215 c -0.342 -0.144 -0.642 -0.355 -0.9 -0.631 c -0.252 -0.276 -0.454 -0.616 -0.604 -1.018 c -0.144 -0.408 -0.215 -0.873 -0.215 -1.395 c 0 -0.522 0.076 -0.983 0.232 -1.385 c 0.162 -0.408 0.377 -0.751 0.641 -1.027 c 0.264 -0.276 0.57 -0.483 0.918 -0.621 c 0.348 -0.144 0.71 -0.215 1.088 -0.215 z m 4.08 1.611 c 0.318 0 0.579 0.026 0.783 0.08 c 0.21 0.054 0.357 0.103 0.441 0.145 l -0.135 0.521 c -0.072 -0.036 -0.195 -0.085 -0.369 -0.145 c -0.168 -0.06 -0.418 -0.09 -0.748 -0.09 c -0.132 0 -0.257 0.015 -0.377 0.045 c -0.114 0.024 -0.217 0.067 -0.307 0.127 c -0.09 0.054 -0.161 0.125 -0.215 0.215 c -0.054 0.084 -0.082 0.19 -0.082 0.316 c 0 0.126 0.024 0.232 0.072 0.322 c 0.048 0.09 0.117 0.172 0.207 0.244 c 0.096 0.066 0.21 0.129 0.342 0.189 c 0.138 0.06 0.295 0.125 0.469 0.197 c 0.18 0.072 0.35 0.147 0.512 0.225 c 0.168 0.072 0.315 0.162 0.441 0.27 c 0.126 0.102 0.229 0.229 0.307 0.379 c 0.078 0.144 0.117 0.327 0.117 0.549 c 0 0.42 -0.159 0.739 -0.477 0.955 c -0.312 0.216 -0.741 0.322 -1.287 0.322 c -0.408 0 -0.722 -0.035 -0.938 -0.107 c -0.216 -0.066 -0.36 -0.116 -0.432 -0.152 l 0.154 -0.531 c 0.018 0.012 0.055 0.033 0.115 0.063 c 0.06 0.024 0.142 0.054 0.244 0.09 c 0.102 0.03 0.221 0.058 0.359 0.082 c 0.144 0.024 0.31 0.035 0.496 0.035 c 0.336 0 0.612 -0.054 0.828 -0.162 c 0.222 -0.114 0.332 -0.302 0.332 -0.566 c 0 -0.126 -0.021 -0.234 -0.063 -0.324 c -0.036 -0.09 -0.099 -0.17 -0.189 -0.242 c -0.09 -0.072 -0.209 -0.141 -0.359 -0.207 c -0.144 -0.066 -0.325 -0.144 -0.541 -0.234 c -0.174 -0.072 -0.338 -0.145 -0.494 -0.217 c -0.156 -0.078 -0.294 -0.164 -0.414 -0.26 c -0.12 -0.102 -0.217 -0.223 -0.289 -0.361 c -0.072 -0.138 -0.107 -0.306 -0.107 -0.504 c 0 -0.378 0.142 -0.684 0.424 -0.918 c 0.288 -0.234 0.68 -0.35 1.178 -0.35 z m 3.922 2.506 l 0.398 0 l 0 2.645 l 0.502 0 l 0 0.311 l -0.502 0 l 0 1.1 l -0.375 0 l 0 -1.1 l -1.836 0 l 0 -0.234 c 0.07 -0.187 0.166 -0.399 0.291 -0.633 c 0.129 -0.234 0.274 -0.473 0.434 -0.719 c 0.16 -0.246 0.334 -0.485 0.521 -0.719 c 0.187 -0.238 0.375 -0.455 0.566 -0.65 z m 0.023 0.428 c -0.136 0.14 -0.276 0.301 -0.416 0.484 c -0.14 0.183 -0.274 0.375 -0.402 0.574 c -0.125 0.195 -0.242 0.391 -0.352 0.59 c -0.109 0.199 -0.201 0.389 -0.275 0.568 l 1.445 0 l 0 -2.217 z" style="fill:#353535;fill-opacity:1"/>
</svg>
